X: 3
T:Scarborough Fair / Canticle (Melody, Extended)
C:Paul Simon, Art Garfunkel
M:3/4
L:1/4
K:G
V:0
"(7x)" z3 |]
%
  E2 E | B/2 B3/2-B/2 B/2 | F3/2 G/2 F | E3- | E3 | z
w:1,5.~Are you go-ing to Scar-bor-ough Fair?_
  B d | e2 d | B ^c A | B3- | B3- | B3- | B z
w:Pars-ley, sage, rose-mar-y, and thyme.___
  e | e2 e | d2 B | B A G | F3- | F3 |
w:Re-mem-ber me to one who lives there,_
  E2 B | A2 G | F E D | E3- | E3- | E3- | E3 ||
w:She once was a true love of mine.___
%
  E E E | B B B | (F G) F | E3- | E3 | z
w:2.~Tell her to make me a cam_ bric shirt,_
  B d | e2 d | B ^c A | B3- | B3- | B3 | z z
w:Pars-ley, sage, rose-mar-y, and thyme,__
  e | e2 e | d2 B | (B A) G | F3- | F3 |
w:With-out no seems nor nee_ dle work,_
  E2 B | A2 G | F E D | E3- | E3- | E3- | E3 ||
w:Then she'll be a true love of mine.___
%
  E E E | B B B | (F G) F | E3- | E3 | z
w:3.~Tell her to find me an a-cre of land,_
  B d | e2 d | B ^c A | B3- | B3- | B3 | z z
w:Pars-ley, sage, rose-mar-y, and thyme,__
  G | G G A | B2 A | G A G | F3- | F3 |
w:Be-tween the salt wa-ter and the sea strands,_
  E2 B | A2 G | F E D | E3- | E3- | E3- | E3 ||
w:Then she'll be a true love of mine.___
%
  E E E | B B B/2B/2 | (F G) F | E E2- | E3 | z
w:4.~Tell her to reap it with a sick-le of leath-er,_
  B d | e2 d | B ^c A | B3- | B3- | B3 | z z
w:Pars-ley, sage, rose-mar-y, and thyme,__
  G | G G A | B2 A | G A G | F F2- | F3 |
w:And ga-ther it all in a bunch of hea-ther,_
  E2 B | A2 G | F E D | E3- | E3- | E3- | E3 |]
w:Then she'll be a true love of mine.___

